engine-ui/packages/console-ui/dist/public/rdos/img/icon/focus.svg

<?xml version="1.0" standalone="no"?><!DOCTYPE svg PUBLIC "-//W3C//DTD SVG 1.1//EN" "http://www.w3.org/Graphics/SVG/1.1/DTD/svg11.dtd"><svg t="1493193218225" class="icon" style="" viewBox="0 0 1024 1024" version="1.1" xmlns="http://www.w3.org/2000/svg" p-id="25471" xmlns:xlink="http://www.w3.org/1999/xlink" width="200" height="200"><defs><style type="text/css"></style></defs><path d="M78.787412 866.425172 78.787412 708.893322 0.021487 708.893322l0 157.531849c0 87.002516 70.529333 157.531849 157.531849 157.531849l157.531849 0 0-78.765925L157.553337 945.191096C114.051567 945.191096 78.787412 909.926942 78.787412 866.425172zM78.787412 157.531849c0-43.500746 35.265178-78.765925 78.765925-78.765925l157.531849 0 0-78.765925L157.553337 0c-87.002516 0-157.531849 70.529333-157.531849 157.531849l0 236.297774 78.765925 0L78.787412 157.531849zM945.212584 866.425172c0 43.500746-35.265178 78.765925-78.765925 78.765925L708.91481 945.191096l0 78.765925 157.531849 0c87.002516 0 157.531849-70.529333 157.531849-157.531849L1023.978509 708.893322l-78.765925 0L945.212584 866.425172zM866.446659 0 708.91481 0l0 78.765925 157.531849 0c43.500746 0 78.765925 35.265178 78.765925 78.765925l0 236.297774 78.765925 0L1023.978509 157.531849C1023.978509 70.529333 953.449175 0 866.446659 0zM787.680734 511.978511c0-21.750373-17.632589-39.382962-39.382962-39.382962l-196.914812 0 0-196.914812c0-21.750373-17.632589-39.382962-39.382962-39.382962s-39.382962 17.632589-39.382962 39.382962l0 196.914812-196.914812 0c-21.750373 0-39.382962 17.632589-39.382962 39.382962s17.632589 39.382962 39.382962 39.382962l196.914812 0 0 196.914812c0 21.750373 17.632589 39.382962 39.382962 39.382962s39.382962-17.632589 39.382962-39.382962l0-196.914812 196.914812 0C770.048145 551.361473 787.680734 533.728884 787.680734 511.978511z" p-id="25472"></path></svg>

<svg class="icon" viewBox="0 0 1024 1024" xmlns="http://www.w3.org/2000/svg" width="200" height="200"><defs><style/></defs><path d="M78.787 866.425V708.893H.021v157.532c0 87.003 70.53 157.532 157.532 157.532h157.532v-78.766H157.553c-43.501 0-78.766-35.264-78.766-78.766zm0-708.893c0-43.5 35.266-78.766 78.766-78.766h157.532V0H157.553C70.551 0 .021 70.53.021 157.532V393.83h78.766V157.532zm866.426 708.893c0 43.5-35.266 78.766-78.766 78.766H708.915v78.766h157.532c87.002 0 157.532-70.53 157.532-157.532V708.893h-78.766v157.532zM866.447 0H708.915v78.766h157.532c43.5 0 78.766 35.265 78.766 78.766V393.83h78.766V157.532C1023.979 70.529 953.449 0 866.447 0zM787.68 511.979c0-21.75-17.633-39.383-39.383-39.383H551.383V275.68c0-21.75-17.633-39.383-39.383-39.383s-39.383 17.632-39.383 39.383v196.915H275.702c-21.75 0-39.383 17.632-39.383 39.383s17.633 39.382 39.383 39.382h196.915v196.915c0 21.75 17.633 39.383 39.383 39.383s39.383-17.632 39.383-39.383V551.361h196.915c21.75 0 39.383-17.632 39.383-39.382z"/></svg>
